X:1
T:Lenzfragen
T:Franz Lachner
T:Johann Gabriel Seidl
T:Lenzfragen
T:No. 1 aus Drei Gesänge für vier Männerstimmen, Op.64
T:CPDL - Creative Commons Attribution Non Commercial 3.0
T:CPDL - Creative Commons Attribution Non Commercial 3.0
C:Franz Lachner
Z:Johann Gabriel Seidl
Z:CPDL - Creative Commons Attribution Non Commercial 3.0
%%score [ ( 1 2 ) ( 3 4 ) ]
L:1/8
Q:1/4=120
M:4/4
K:D
V:1 treble-8 nm="T"
V:2 treble-8 
V:3 bass nm="B"
V:4 bass 
V:1
!f!"^Allegro moderato" A2 | d4 (A7/2 B/) | c4 z2!p! c2 |"^< >" f8 | ^e4 z2 z3/2!f!"^marc." c/ | %5
w: 1\-3.~Was|macht den _|Lenz? 1.~die|Blu-|men? 1\-3.~O|
w: ||* 2.~die|Son-|ne? *|
w: ||* 3.~die|Bäu-|me?~* *|
w: 4.~Was|macht den _|Lenz? die|Lie-|be? Ja-|
 f2 z3/2 f/ f2 z3/2 f/ | !>!g6!p![Q:1/4=124]"^poco piu vivace — Getragen" g2 | (.g2 .f2 .f2 .e2) | %8
w: nein, o nein, *|nein! Die|Blu- men ma- chen|
w: * * * o|nein! Wie|schaut der lie- be|
w: |nein! Und|wirft der Him- mel|
w: wohl, die Lieb' al-|lein! Die|Lie- be, die mit|
 (.e2 .d2 .A2 .d2) | !>!^d2 e2 A2 e2 | !>!^e3 f d2 g2 | !>!g2 f2 f2 e2 | e2 d2 A2 d2 | %13
w: ihn nicht aus, wir|ha- ben de- ren|viel zu Haus, der|Blu- men vie- le,|schön und licht, und|
w: Son- nen- schein nicht|oft im Win- ter|hell her- ein, und|wärmt und strahlt und|spielt und malt, das|
w: noch so blau sein|lie- bes Aug' auf|Strom und Au, so|wal- len wir doch|trüb da- her, als|
w: Freud' und Scherz er-|füllt der Wel- ten|gro- ßes Herz, die|Lie- be schwellt mit|ih- rem Hauch das|
"^cresc." e2 e2[Q:1/4=110]"^poco rit"!<(! e2 g2!<)! | f3!>(! e !fermata!e2!>)!!f! e2 | %15
w: ha- ben doch den|Früh- ling nicht, und|
w: Herz im Leib ist|gleich- wohl kalt, das|
w: ob es tief im|Win- ter wär', als|
w: klei- ne Herz des|Men- schen auch, das|
[Q:1/4=120]"^più vivace" e2!>(! e2 f2!>)! g2 |!p![Q:1/4=110]"^leggiero" (abag fgfe | dcde f2) e2 |1 %18
w: ha- ben doch den|Früh- * * * * * * *|* * * * * ling|
w: Herz im Leib ist|gleich- * * * * * * *|* * * * * wohl|
w: ob es tief im|Win- * * * * * * *|* * * * * ter|
w: klei- ne Herz des|Men- * * * * * * *|* * * * * schen|
 d6 :|2 d2!pp! f2 fg fe || d2 d2 e3 e | f2 f2 fg fe | d2 d2 e3 e | f2"^cresc." d2 ed ef | %24
w: nicht.||4.~schwellt mit ih- rem|Hauch das klei- * ne _|Herz des Men- schen|auch, die Lie- * be _|
w: kalt.||||||
w: wär'.||||||
w: |auch, die Lie- * be _|_ _ _ _||||
 g2 f2 g2 a2 |!f! (a4 g)fed | d2 d2 !>!f3 e | d2 z!pp![Q:1/4=110]"^ritard. poco a poco" f f3 ^e | %28
w: schwellt mit ih- rem|Hauch _ das klei- ne|Herz des Men- schen|auch, das klei- ne|
w: ||||
w: ||||
w: ||||
 f3 d f3 ^e |"^< >" !fermata!f8 |] %30
w: Herz des Men- schen|auch.|
w: ||
w: ||
w: ||
V:2
 A2 | d4 (A7/2 B/) | c4 x2 c2 | c8 | c4 x2 x3/2 c/ | c2 x3/2 c/ c2 x3/2 c/ | c6 c2 | d2 d2 c2 c2 | %8
 A2 A2 A2 A2 | A2 A2 A2 A2 | A3 A A2 d2 | d2 d2 c2 c2 | A2 A2 A2 d2 | d2 d2 d2 d2 | d3 d d2 d2 | %15
 c2 c2 d2 e2 | (fgfe d4 | A6) c2 |1 d6 :|2 d2 d2 d2 d2 || d2 d2 c3 c | d2 d2 c2 c2 | d2 B2 c3 c | %23
 d2 d2 d2 d2 | d2 d2 d2 d2 | (d4 d)^cBA | A2 A2 c3 c | d2 x d d3 d | d3 d d3 d | d8 |] %30
V:3
!f! A,2 | D4 (A,7/2 B,/) | C4 z2!p! C2 |"^< >" ^A,8 | ^G,4 z2 z3/2"^marc."!f! C/ | %5
 ^A,2 z3/2 A,/ A,2 z3/2 A,/ | =A,6!p! A,2 | A,2 A,2 A,2 G,2 | G,2 F,2 F,2 F,2 | G,2 G,2 G,2 G,2 | %10
 G,3 F, F,2 B,2 | B,2 A,2 A,2 G,2 | G,2 F,2 F,2 F,2 |"^cresc." G,2 G,2!<(! G,2 E,2!<)! | %14
 F,3!>(! G, G,2!>)!!f! ^G,2 | A,2!>(! A,2 A,2!>)! A,2 |!p! (A,4 A,B,A,G, | F,E,F,G, A,2) G,2 |1 %18
 F,6 :|2 F,2!pp! A,2 A,B, A,G, || F,2 F,2 A,3 A, | A,2 A,2 ^A,2 A,2 | B,2 F,2 =A,3 A, | %23
 A,2"^cresc." F,2 G,F, G,A, | B,2 A,2 B,2 =C2 |!f! (=C4 B,)A,G,F, | F,2 F,2 A,3 G, | %27
 F,2 z!pp! A, A,B,A,^G, | A,3 F, A,B,A,^G, |"^< >" A,8 |] %30
V:4
 A,,2 | D,4 (A,,7/2 B,,/) | C,4 x2 C,2 | F,8 | C,4 x2 x3/2 C,/ | F,2 x3/2 F,/ F,2 x3/2 F,/ | %6
w: ||||||
 !>!E,6 E,2 | (.D,2 .D,2 .A,,2 .A,,2) | (.D,2 .D,2 .D,2 .D,2) | !>!D,2 C,2 B,,2 A,,2 | %10
w: ||||
 !>!D,3 D, D,2 D,2 | !>!D,2 D,2 A,,2 A,,2 | D,2 D,2 D,2 D,2 | B,,3 B,, B,,2 B,,2 | %14
w: ||||
 B,,3 B,, !fermata!B,,2 B,,2 | A,,C,E,G, F,2 E,2 | D,8- | D,6 A,,2 |1 D,6 :|2 D,2 D,2 D,2 D,2 || %20
w: ||||||
 D,2 D,B, A,G, F,E, | D,2 D,2 F,2 F,2 | B,,2 B,,B, A,G, F,E, | D,2 D,2 D,2 D,2 | %24
w: * * * ih- * rem *||* * * Men- * schen *||
 D,2 D,2 E,D, E,F, | G,2 G,,2 G,,2 G,,2 | A,,2 A,,2 !>!A,,3 A,, | D,2 x D, D,3 D, | D,3 D, D,3 D, | %29
w: |Hauch das klei- ne||||
 !fermata!D,8 |] %30
w: |

